X:1
T:The Green Cottage
R:polka
M:2/4
L:1/8
K:Emin
B>A|:GE ED|B,E E>F|GF ED|GA B/c/B/A/|
|GE ED|B,E E2|B/c/B/A/ GF|1 E2 B>A:|2 E2 E2|]
|:Be ef|ed BA|Be df|e2 ef|
|ga/g/ fg/f/|ed BA|BE E/F/G/A/|1 B2 BA:|2 B2 B>A|]